X: 060299
T: Fanore Slide
S: M.Russell
Z: B.Black
R: slide
M: 12/8
L: 1/8
K: D
F | ABA ABA ABA F2 E | DFA B2 A BcA F2 E |
dcd a2 g fgf B2 A | ABA BAB d3-d2 :|
A | dcd a2 g f2 d B2 A | BcA BcA BcA F2 E |
dcd a2 g fgf B2 A | ABA BAB d3-d2 :|
